X:1
T:Glaub, Hoffnung
T:André Vierendeels
T:Source : Catechismus---Würzburg---J.Volmari---1652. Editor : André Vierendeels (05/09/17).
T:Notes : Original clef : C1, other voices  supplied editorially Original note values have been halved Text Middle German 
T:Glaub, Hoffnung II 
T:Melody by Georg Vogler (1625) (Soprano voice)
T:©
T:©
C:André Vierendeels
Z:©
%%score [ 1 2 3 ]
L:1/8
Q:1/4=120
M:2/2
K:F
V:1 treble nm="Soprano" snm="S"
V:2 treble-8 nm="Tenor" snm="T"
V:3 bass nm="Bass" snm="B"
V:1
"^1)" F4 E2 D2 | C4 F2 G2- | G2 A2 F4 | z4 A4 | A2 B2 A4 | G2 A4 G2 | F4 z4 | F4 G2 A2 | %8
w: Glaub, Hoff- nung|sambt der Lie-|* be werth,|hat|schon das Erst|Ge- bott be-|gehrt,|das dritt von|
w: Ge- denck dann,|und vor Au-|* gen hab,|die|gan- tze Woch,|auff Sonn Feyr-|tag,|wie Gott als-|
 G2 F2 B2 B2 | A4 z4 | F4 D2 E2 | C4 D2 F2- | F2 D2 !fermata!F4 | A4 A2 F2 | G2 B2 A4 | G4 F4 | %16
w: aus- sen Dienst für-|schreibt,|wel- chen der|Mensch Gott Schul-|* dig bleibt:|hie wird dann|gwis- se Zeit|be- stimbt,|
w: dann zu die- nen|sey:|al- so ver-|richt die Gschäfft|_ dar- bey,|dasz un- ver-|hin- dert bstimb-|te Zeit|
 z4 A4 | c2 B2 A4 | G2 F4 G2 | F8 |] %20
w: in|wel- cher mans|ver- rich- ten|kündt.|
w: im|Gotts- dienst wohl|werd an- ge-|leyt.|
V:2
"^2)""^1)" A4 c2 G2 | A4 A2 B2- | B2 c2 A4 | z4 d4 | c2 B2 c4 | e2 c4 B2 | c4 z4 | c4 B2 d2 | %8
w: Glaub, Hoff- nung|sambt der Lie-|* be werth,|hat|schon das Erst|Ge- bott be-|gehrt,|das dritt von|
w: Emb- sig nach|Got- tes Wort|_ dich kehr,|pre-|digt und ca-|te- chis- mum|hör,|wer Got- tes|
 B2 c2 d2 G2 | ^F4 z4 | c4 B2 c2 | G4 A2 A2 | c2 F2 !fermata!c4 | d4 c2 c2 | B2 G2 F4 | c4 c4 | %16
w: aus- sen Dienst für-|schreibt,|wel- chen der|Mensch Gott schul-|* dig bleibt:|hie wird dann|gwis- se Zeit|be- stimbt,|
w: Lehr und Wort ver-|acht,|den reitt der|Teuf- fel vol|_ ler Macht,|emp- fang er|als ausz Got-|tes Mund.|
 z4 c4 | A2 d2 c4 | B2 d4 c2 | A8 |] %20
w: in|wel- cher mans|ver- rich- ten|kündt.|
w: als-|dann der Mensch|Lieb, An- dacht|voll.|
V:3
"^3)""^1)""^4)" F,4 C,2 G,2 | F,4 D,2 G,2- | G,2 F,2 F,4 | z4 D,4 | A,,2 G,,2 F,,4 | C,2 F,4 G,2 | %6
w: Glaub, Hoff- nung|sambt der Lie-|* be werth,|hat|schon das Erst|Ge- bott be-|
w: Das Ambt- der|Mesz gantz hö-|* ren soll,|die|gna- de- rei-|che Sa- cra-|
 F,4 z4 | F,4 G,2 F,2 | G,2 F,2 B,2 G,2 | D,4 z4 | F,4 G,2 C,2 | E,4 D,2 F,2- | %12
w: gehrt,|das dritt von|aus- sen Dienst für-|schreibt,|wel- chen der|Mensch Gott schul-|
w: ment,|so Gott zu|un- serm Heyl ge-|wendt,|brauch viel- mals|Beicht, com- mu-|
 F,2 B,,2 !fermata!F,4 | D,4 F,2 A,2 | G,2 G,2 D,4 | E,4 F,4 | z4 F,4 | F,2 B,,2 F,4 | %18
w: * dig bleibt:|hie wird dann|gwis- se Zeit|be- stimbt,|in|wel- cher mans|
w: * ni- cir,|Danck- sa- gung,|Lob im Hert-|zen führ.|Knecht-|li- cher Ar-|
 G,2 A,4 E,2 | F,8 |] %20
w: ver- rich- ten|kündt.|
w: beit dich ent-|schlag,|

